lib/brands/icons/google-doubleclick.svg

<svg xmlns="http://www.w3.org/2000/svg" fill="none" aria-hidden="true" viewBox="0 0 48 48"><g id="google-doubleclick-Icon"><g id="Group"><path id="Vector" fill="#B9D532" d="M23.9928 17.3366C28.9388 17.3366 33.2325 20.0197 35.5378 24.0005C36.7198 21.9788 37.3416 19.6785 37.3393 17.3366C37.3393 9.97516 31.3641 4 23.9928 4C16.6363 4 10.6611 9.97417 10.6611 17.3366C10.6611 19.7609 11.3223 22.0406 12.4557 24.0005C14.763 20.0187 19.0665 17.3366 23.9928 17.3366V17.3366Z"/><path id="Vector_2" fill="#359F47" d="M23.9928 30.6693C19.0655 30.6693 14.763 27.9882 12.4557 24.0024C11.2801 26.0276 10.661 28.3276 10.6611 30.6693C10.6611 38.0278 16.6363 44 23.9928 44C31.3641 44 37.3393 38.0288 37.3393 30.6693C37.3393 28.2341 36.683 25.9633 35.5378 24.0024C33.2325 27.9882 28.9398 30.6693 23.9928 30.6693V30.6693Z"/><path id="Vector_3" fill="#036C40" d="M23.9931 30.6691C28.9391 30.6691 33.2328 27.988 35.5381 24.0023C33.2319 20.0205 28.9391 17.3384 23.9931 17.3384C19.0658 17.3384 14.7633 20.0214 12.4561 24.0023C14.7633 27.988 19.0668 30.6691 23.9931 30.6691V30.6691Z"/></g></g></svg>

<svg xmlns="http://www.w3.org/2000/svg" fill="none" aria-hidden="true" viewBox="0 0 48 48"><path fill="#B9D532" d="M23.993 17.337c4.946 0 9.24 2.683 11.545 6.663a13.178 13.178 0 0 0 1.801-6.663C37.34 9.975 31.364 4 23.993 4 16.636 4 10.66 9.974 10.66 17.337c0 2.424.661 4.704 1.795 6.663 2.307-3.981 6.61-6.663 11.537-6.663Z"/><path fill="#359F47" d="M23.993 30.67c-4.928 0-9.23-2.682-11.537-6.668a13.278 13.278 0 0 0-1.795 6.667C10.66 38.028 16.636 44 23.993 44c7.37 0 13.346-5.971 13.346-13.33a13.16 13.16 0 0 0-1.801-6.668c-2.306 3.986-6.598 6.667-11.545 6.667Z"/><path fill="#036C40" d="M23.993 30.67c4.946 0 9.24-2.682 11.545-6.668-2.306-3.982-6.599-6.664-11.545-6.664-4.927 0-9.23 2.683-11.537 6.664 2.307 3.986 6.61 6.667 11.537 6.667Z"/></svg>
